X:1
T:Se m'ami e se non m'ami
T:Luca Marenzio
T:Source : Il terzo libro delle Villanelle a tre voci---Venetia---G.Vincenzi---1587. Editor : André Vierendeels (01/06/17).
T:Notes : Original clefs : G2, C1, F3 Editorial accidentals above the staff
T:Se m'ami e se non m'ami
T:©
T:©
C:Luca Marenzio
Z:©
%%score [ 1 2 3 ]
L:1/8
Q:1/4=120
M:4/4
K:F
V:1 treble nm="Soprano 1" snm="S 1"
V:2 treble nm="Soprano 2" snm="S 2"
V:3 treble-8 nm="Tenor" snm="T"
V:1
"^1)" z2 d2 d3 e | f2 g2 e4 | d4 z4 | z2 c2 d2 e2 | f2 d2 c4 |1[M:2/4] B4 ::2[M:4/4] B4 z2 d2 || %7
w: Se m'a- mi'e|se non m'a-|mi|sog- get- to'a|mil- le pe-|ne,|ne, per|
w: Ne per- che|tan- ti mi-|ri,|d'un al- tra|don- na ma-|i,|i, a-|
 f2 e2 d2 c2 | d4 d4 |"^b" z2 G2 A2 B2 | c2 d2 e4 | d8 | z4 g4- | g2 fe d4 | z2 c2 d4 | c8 | %16
w: te vi- vro mio|be- ne,|pe- ro fia|lie- ta'e mi-|ra,|sol|_ chi per te|so- spi-|ra,|
w: man- te mi ve-|dra- i,|co- si dol-|ce tu m'ar-|di,|co'|_ dol- ci'a- ma-|ti sguar-|di,|
 z4 d4- | d2 cB A4 | z2 G2 A4 | G8 |] %20
w: sol|_ chi per te|so- spi-|ra.|
w: co'|_ dol- ci'a- ma-|ti sguar-|di|
V:2
"^2)""^1)""^3)" z2 B2 B3 c | d2 d2 ^c4 | d2 A2 A2 G2 | A4 B4 | c2 B4 A2 |1[M:2/4] B4 ::2 %6
w: Se m'a- mi'e|se non m'a-|mi, sog- get- to'a|mil- le|pe- * *|ne,|
w: In van tu|te- mi, ch'i-|o d'al- ta piu|bel- la|di- * *|va,|
[M:4/4] B4 z2 d2 || f2 e2 d2 c2 | =B4 B4 | z2 G2 F2 G2 | A2 =B2 c4 | =B8 | c6 dc | =B4 z2 A2 | %14
w: ne, per|te vi- vro mio|be- ne,|pe- ro fia|lie- ta'e mi-|ra,|sol chi per|te so-|
w: va, a|me cru- da non|ren- di,|al- tro non|po- tro fa-|re,|che per te|so- spi-|
 =B2 c4 B2 | c8 | B6 AG | F4 z2 E2 | ^F2 G4 F2 | G8 |] %20
w: spi- * *|ra,|sol chi per|te so|spi- * *|ra.|
w: ra- * *|te,|che per te|so- spi-|ra- * *|te.|
V:3
"^1)""^4)" G4 G3 A | B2 G2 A4 |"^-natural" D2 d2 c2 B2 | A4 G4 | F8 |1[M:2/4] B,4 ::2 %6
w: Se m'a- mi'e|se non m'a-|mi, sog- get- to'a|mil- le|pe-|ne,|
w: Vi- vi piu|lie- ta'e cre-|di, che fin che'l|cor, ce'in-|cen-|di,|
[M:4/4] B,2 B2 B4- || B2 c2 G2 A2 | G4 G4 | c4 A2 G2 | F2 D2 C4 | G8 | c6 BA | G4 z2 F2 | G8 | C8 | %16
w: ne per te|_ vi- vro mio|be- ne,|pe- ro fia|lie- ta'e mi-|ra,|sol chi per|te so-|spi-|ra,|
w: di, al- tro|_ non po- tro|fa- re,|che per te|so- spi- ra-|te,|che per te|so- spi-|ra-|te,|
 G6 FE | D4 z2 C2 | D8 | G8 |] %20
w: sol chi per|te so-|spi-|ra.|
w: che per- te|so- spi-|ra-|te.|

